tools/download-figma-icons/icons/solid/contact-person.svg

<svg width="24" height="24" viewBox="0 0 24 24" fill="none" xmlns="http://www.w3.org/2000/svg">
<path fill-rule="evenodd" clip-rule="evenodd" d="M11.4169 24C9.93945 22.41 10.6572 21.1875 10.8297 20.9325C11.1889 20.3925 12.1422 19.5375 13.0422 18.9525C13.4247 18.6975 13.9347 18.4125 14.5639 18.4125C15.4197 18.4125 15.9679 18.915 16.4322 19.4025C16.6272 19.215 16.9497 18.87 17.4297 18.2625C17.9472 17.61 18.2179 17.2125 18.3522 16.9725C17.7597 16.59 17.0329 16.0575 16.9797 15.0225L14.7972 14.3925L14.5572 13.68C15.9747 12.885 17.0472 11.3775 17.0472 9.855V9.5325C17.5497 9.315 18.0004 8.8425 18.0004 8.0325V7.125C18.0004 6.495 17.7297 6.075 17.3697 5.8125C18.3522 3.495 16.8897 1.185 15.8547 0.21C15.7204 0.075 15.5329 0 15.3372 0C15.2997 0 15.2622 0 15.2179 0.0075C14.9922 0.045 14.7972 0.1875 14.6847 0.39L14.6845 0.390314C14.6301 0.475861 13.7732 1.8225 10.5664 1.8225C9.14145 1.8225 8.14395 2.16 7.5222 2.865C6.75645 3.7275 6.8097 4.8525 6.89145 5.61C6.4347 5.7975 5.9997 6.2175 5.9997 7.125V8.0325C5.9997 8.8425 6.44895 9.315 6.95145 9.5325V9.855C6.95145 11.3775 8.0247 12.885 9.44145 13.68L9.20145 14.3925L4.89645 15.8025C3.77145 16.2525 2.96145 17.19 2.74395 18.2775L1.52145 23.0625C1.46895 23.2875 1.51395 23.5275 1.65645 23.7075C1.79895 23.895 2.01645 24 2.24895 24C2.24895 24 9.72645 23.9902 11.4169 24ZM20.1752 20.5047L20.1827 20.4897C23.2802 16.5822 22.7852 13.7397 21.5027 12.6672C20.9027 12.1722 20.4602 11.9997 20.1527 11.9997C19.9727 11.9997 19.8377 12.0597 19.7477 12.1497C19.5145 12.3972 18.9752 13.2822 18.607 14.2572C18.3227 15.0297 18.4495 15.2397 19.012 15.6072C19.1209 15.6855 19.2438 15.7637 19.385 15.8536C19.4198 15.8757 19.4557 15.8985 19.4927 15.9222C20.452 16.5372 19.9495 17.5047 18.6002 19.1997C17.647 20.3997 16.9427 21.0972 16.3345 21.0972C16.0952 21.0972 15.862 20.9922 15.637 20.7522C15.5763 20.6878 15.5194 20.6267 15.4658 20.5691C15.0757 20.1499 14.8546 19.9122 14.5645 19.9122C14.377 19.9122 14.167 20.0022 13.867 20.1972C12.997 20.7672 12.2695 21.4797 12.082 21.7572C11.8945 22.0422 11.977 22.6272 12.9295 23.4147C13.357 23.7747 13.9645 23.9997 14.6927 23.9997C15.5845 23.9997 16.6652 23.6622 17.8502 22.8072C18.5927 22.2597 19.3727 21.5097 20.1752 20.5047Z" fill="black"/>
</svg>

<svg xmlns="http://www.w3.org/2000/svg" width="24" height="24" fill="none" viewBox="0 0 24 24"><path fill="currentColor" fill-rule="evenodd" d="M11.417 24c-1.478-1.59-.76-2.812-.587-3.067.359-.54 1.312-1.395 2.212-1.98.383-.255.893-.54 1.522-.54.856 0 1.404.502 1.868.99.195-.188.518-.533.998-1.14.517-.653.788-1.05.922-1.29-.592-.383-1.32-.915-1.372-1.95l-2.183-.63-.24-.713c1.418-.795 2.49-2.302 2.49-3.825v-.322c.503-.218.953-.69.953-1.5v-.908c0-.63-.27-1.05-.63-1.312.982-2.318-.48-4.628-1.515-5.603a.73.73 0 0 0-.518-.21c-.037 0-.075 0-.12.008a.76.76 0 0 0-.532.382c-.055.086-.912 1.432-4.119 1.432-1.425 0-2.422.338-3.044 1.043-.766.862-.712 1.987-.63 2.745C6.434 5.798 6 6.217 6 7.125v.908c0 .81.449 1.282.951 1.5v.322c0 1.522 1.074 3.03 2.49 3.825l-.24.713-4.305 1.41c-1.125.45-1.935 1.387-2.152 2.474L1.52 23.063a.76.76 0 0 0 .135.645c.143.188.36.293.593.293 0 0 7.477-.01 9.168 0m8.758-3.495.008-.015c3.097-3.908 2.602-6.75 1.32-7.823-.6-.495-1.043-.667-1.35-.667-.18 0-.315.06-.405.15-.233.247-.773 1.132-1.141 2.107-.284.773-.157.983.405 1.35.109.079.232.157.373.247l.108.068c.959.615.457 1.583-.893 3.278-.953 1.2-1.657 1.897-2.266 1.897-.239 0-.472-.105-.697-.345l-.171-.183c-.39-.42-.611-.657-.901-.657-.188 0-.398.09-.698.285-.87.57-1.598 1.283-1.785 1.56-.187.285-.105.87.848 1.658.427.36 1.034.585 1.763.585.892 0 1.972-.338 3.157-1.193.743-.547 1.523-1.297 2.325-2.302" clip-rule="evenodd"/></svg>
